X:47
T:Tub Hornpipe. WM.047
M:C
L:1/8
Q:1/2=90
S:Wm.Mittell’s MS, New Romney,Kent,1799
R:.Hornpipe
O:England
A:Kent
Z:vmp.Chris Partington
K:G
(3d/e/f/|g2d2dedc|B2d4ef|gfed cBAG|F2D4EF|!
G2G2GABc|d2B2e2dc|BdBG AcAF|G2G4:|!
|:Bc|dedc BcdB|e2c4Bc|dedc BcBA|G2D4EF|!
GdBG cecA|BdBG AcAF|Ggfe dcBA|B2G4:|

